X:6580
T:Vals e. Rost Pe
A:Jmtland
M:3/4
O:Sweden
R:Waltz
Z:Richard Robinson 
%%TUNEURL: http://www.leeds.ac.uk/music/Info/RRTuneBk/gettune/000008ca.html
%%ID:000008ca
K:G
B2c2|\
d4 d2|d2c2 B2|g6|d6|e3e ee|e2f2 g2|d3c BA|G6|\
A3A AA|A2B2 c2|e6|d6|c2cBA2|B2BAG2|FAd2F2|G6::\
A2FAc2|B2GBd2|e2^ceg2|f2dfa2|\
a2efg2|f2ec fa|ag e^c ec|d6:|
